X:9
T:9. Yog Sothoth 
N:from lieuxc_musique9b.mid
Z:Eric Forgeot - http://anamnese.online.fr
M:4/4
L:1/8
Q:1/4=120
% Last note suggests Dorian mode tune
K:G % 1 sharps
V:1
%%staves 1 (2  3) 4
%%MIDI program 0
%%MIDI channel 1
%%MIDI transpose 0
%%MIDI control 7 120 %volume
z8 | z8 | z8 :| 
|: BB e4 BA | GA BB B2 AG | A2 Bc ce c2 | B2 AB G4 :| 
|: BB e2 A2 B2 | c/2B/2 A/2B/2 GA cA F2 | cA BG AB e2- | e2 ec Bc A2 :| 
BB e2 B2 G2 | c/2B/2 A/2B/2 GA EF D2 | cA BG AB e2- | e2 ec Bc A2 | 
BB e2 A2 B2 | c/2B/2 A/2B/2 GA cA F2 | cA BG AB e2- | e2 ec Bc A2 | 
|: BB e4 BA | GA BB B2 AG | A2 Bc ce c2 | B2 AB G4 :| 
|: BB e2 A2 B2 | c/2B/2 A/2B/2 GA cA F2 | cA BG AB e2- | e2 ec Bc A2 :| 
|: BB e2 A2 B2 | c/2B/2 A/2B/2 GA cA F2 | cA BG AB e2- | e2 ec Bc A2 :|
V:2
% Imported MIDI
%%MIDI program 0
%%MIDI channel 2
%%MIDI transpose 0
%%MIDI control 7 90 %volume
G,F, E,2 B,2 B,2 | G,F, E,2 A,2 A,2 | A,B, G,A, B,B, B,2 :| 
|: G,F, E,2 B,2 B,2 | G,F, E,2 B,2 B,2 | A,B, G,A, B,B, B,2 | G,F, E,2 B,2 B,2 :| 
|: G,F, E,2 B,2 B,2 | G,F, E,2 A,2 A,2 | G,F, E,2 D,2 E,2 | G,F, E,2 E,2 D,2 :| 
G,F, E,2 D,2 E,2 | G,F, E,2 E,2 D,2 | G,F, E,2 B,2 B,2 | G,F, E,2 A,2 A,2 | 
G,F, E,2 D,2 E,2 | G,F, E,2 E,2 D,2 | G,F, E,2 B,2 B,2 | G,F, E,2 A,2 A,2 | 
|: G,F, E,2 B,2 B,2 | G,F, E,2 B,2 B,2 | A,B, G,A, B,B, B,2 | G,F, E,2 B,2 B,2 :| 
|: G,F, E,2 D,2 E,2 | G,F, E,2 E,2 D,2 | G,F, E,2 B,2 B,2 | G,F, E,2 A,2 A,2 :| 
|: G,F, E,2 D,2 E,2 | G,F, E,2 E,2 D,2 | G,F, E,2 B,2 B,2 | G,F, E,2 A,2 A,2 :| 
V:3
% Imported MIDI
%%MIDI program 0
%%MIDI channel 2
%%MIDI transpose 0
%%MIDI control 7 90 %volume
G,,F,, E,,2 B,,2 B,,2 | G,,F,, E,,2 A,,2 A,,2 | A,,B,, G,,A,, B,,B,, B,,2  | 
|: G,,F,, E,,2 B,,2 B,,2 | G,,F,, E,,2 B,,2 B,,2 | A,,B,, G,,A,, B,,B,, B,,2 | G,,F,, E,,2 B,,2 B,,2 :| 
|: G,,F,, E,,2 B,,2 B,,2 | G,,F,, E,,2 A,,2 A,,2 | G,,F,, E,,2 B,,2 B,,2 | G,,F,, E,,2 A,,2 A,,2 :| 
G,,F,, E,,2 B,,2 B,,2 | G,,F,, E,,2 A,,2 A,,2 | G,,F,, E,,2 B,,2 B,,2 | G,,F,, E,,2 A,,2 A,,2 | 
G,,F,, E,,2 B,,2 B,,2 | G,,F,, E,,2 A,,2 A,,2 | G,,F,, E,,2 B,,2 B,,2 | G,,F,, E,,2 A,,2 A,,2 | 
|:G,,F,, E,,2 B,,2 B,,2 | G,,F,, E,,2 B,,2 B,,2 | A,,B,, G,,A,, B,,B,, B,,2 | G,,F,, E,,2 B,,2 B,,2 :| 
|: G,,F,, E,,2 B,,2 B,,2 | G,,F,, E,,2 A,,2 A,,2 | G,,F,, E,,2 B,,2 B,,2 | G,,F,, E,,2 A,,2 A,,2 :|
|: G,,F,, E,,2 B,,2 B,,2 | G,,F,, E,,2 A,,2 A,,2 | G,,F,, E,,2 B,,2 B,,2 | G,,F,, E,,2 A,,2 A,,2 :|
V:4
% Imported MIDI
%%MIDI program 0
%%MIDI channel 2
%%MIDI transpose 0
%%MIDI control 7 90 %volume
E,, B,,3 E,4 | E,, A,,3 D,4 | D,,2 D,,2 E,,2 E,,2 :| 
|: B,,4- B,,A,, B,,2 | E,2 E,2 B,,4 | F,2 E,2 B,,2 C,2 | B,,2 E,,B,, G,,E,, F,,2 :| 
|: B,,4- B,,A,, B,,2 | B,,B,, G,,2 A,,4 | G,,2 E,,2 D,,2 B,,2 | G,,2 E,,2 E,,2 A,,2 :| 
B,,4- B,,A,, B,,2 | B,,B,, G,,2 A,,4 | G,,2 E,,2 D,,2 B,,2 | G,,2 E,,2 E,,2 A,,2 | 
B,,4- B,,A,, B,,2 | B,,B,, G,,2 A,,4 | G,,2 E,,2 D,,2 B,,2 | G,,2 E,,2 E,,2 A,,2 | 


% Imported MIDI
%%MIDI program 0
% Copyright (c) xxxx Copyright Holder
% Created by Rosegarden
% http://www.rosegardenmusic.com/
%%MIDI program 0
% Imported MIDI
%%MIDI program 0
% Copyright (c) xxxx Copyright Holder
% Created by Rosegarden
% http://www.rosegardenmusic.com/
%%MIDI program 0
% Imported MIDI
%%MIDI program 0
% Copyright (c) xxxx Copyright Holder
% Created by Rosegarden
% http://www.rosegardenmusic.com/
%%MIDI program 0


